X: 1
T: Maple Leaf, The
M: 6/8
L: 1/8
R: jig
K: Dmaj
|:B2G G2E|D2B, B,2G|F2A AGF|G2B BGA|
B2G G2E|D2B, B,2G|F2A AGF|G3 F2G:|
|:A2A A^GA|BA^G A2d|d2^c c2e|e2d dFG|
A2A A^GA|BA^G A2d|d2^c cBc|d3 d3:||
